X: 1
T: The Reel of Mey
C: James Aitken
B: RSCDS 22-__
R: jig
Z: John Chambers <jc:trillian.mit.edu>
M: 6/8
L: 1/8
P: AABABA
K: Em
B, \
| "Em"E2F G2A | B2c B3 | "D"AFD D2F | "Em"G2E "B7"F2B, \
| "Em"E2F G2A | B2c B3 | "D"AGF "B7"G2F | "Em"E3-"fine"E2 :|
D \
| "G"G2B dBG | "D7"F2A c2F | "G"G2B dBG | "Am"A3-"D7"A2D \
| "Em"E2G BGE | "B7"^D2F A2D | "Em"EGA "Am"B2c | "B7"B3-"d.C."B2 |]
